packages/dnb-ui-lib/assets/icons/person_medium.svg

<svg width="24" height="24" viewBox="0 0 24 24" fill="none" xmlns="http://www.w3.org/2000/svg">
<path d="M16.238 22.5395C16.2598 22.9532 16.6128 23.2708 17.0265 23.249C17.4401 23.2271 17.7577 22.8741 17.7359 22.4605L16.238 22.5395ZM6.2641 22.4605C6.24228 22.8741 6.5599 23.2271 6.97354 23.249C7.38718 23.2708 7.74019 22.9532 7.76202 22.5395L6.2641 22.4605ZM12 17.75C13.3594 17.75 14.3526 18.2634 15.0382 19.078C15.7399 19.9117 16.1629 21.116 16.238 22.5395L17.7359 22.4605C17.6485 20.8042 17.1507 19.2585 16.1858 18.1121C15.205 16.9467 13.7859 16.25 12 16.25V17.75ZM7.76202 22.5395C7.83714 21.116 8.26011 19.9117 8.96179 19.078C9.64745 18.2634 10.6406 17.75 12 17.75V16.25C10.2141 16.25 8.79502 16.9467 7.81417 18.1121C6.84934 19.2585 6.3515 20.8042 6.2641 22.4605L7.76202 22.5395ZM17.25 7C17.25 9.8995 14.8995 12.25 12 12.25V13.75C15.7279 13.75 18.75 10.7279 18.75 7H17.25ZM12 12.25C9.10051 12.25 6.75 9.8995 6.75 7H5.25C5.25 10.7279 8.27208 13.75 12 13.75V12.25ZM6.75 7C6.75 4.10051 9.10051 1.75 12 1.75V0.25C8.27208 0.25 5.25 3.27208 5.25 7H6.75ZM12 1.75C14.8995 1.75 17.25 4.10051 17.25 7H18.75C18.75 3.27208 15.7279 0.25 12 0.25V1.75Z" fill="black"/>
</svg>

<svg width="24" height="24" viewBox="0 0 24 24" fill="none" xmlns="http://www.w3.org/2000/svg"><path d="M16.238 22.54a.75.75 0 101.498-.08l-1.498.08zm-9.974-.08a.75.75 0 001.498.08l-1.498-.08zM12 17.75c1.36 0 2.353.513 3.038 1.328.702.834 1.125 2.038 1.2 3.462l1.498-.08c-.088-1.656-.585-3.201-1.55-4.348-.981-1.165-2.4-1.862-4.186-1.862v1.5zm-4.238 4.79c.075-1.424.498-2.628 1.2-3.462.685-.815 1.679-1.328 3.038-1.328v-1.5c-1.786 0-3.205.697-4.186 1.862-.965 1.147-1.463 2.692-1.55 4.349l1.498.079zM17.25 7c0 2.9-2.35 5.25-5.25 5.25v1.5A6.75 6.75 0 0018.75 7h-1.5zM12 12.25A5.25 5.25 0 016.75 7h-1.5A6.75 6.75 0 0012 13.75v-1.5zM6.75 7c0-2.9 2.35-5.25 5.25-5.25V.25A6.75 6.75 0 005.25 7h1.5zM12 1.75c2.9 0 5.25 2.35 5.25 5.25h1.5A6.75 6.75 0 0012 .25v1.5z" fill="#000"/></svg>
